dist/img/basket-y.svg

<svg width="34" height="35" fill="none" xmlns="http://www.w3.org/2000/svg"><g clip-path="url(#clip0_401_2749)"><path d="M27 14.5h-4.79l-4.38-6.56a.993.993 0 00-.83-.42c-.32 0-.64.14-.83.43l-4.38 6.55H7c-.55 0-1 .45-1 1 0 .09.01.18.04.27l2.54 9.27c.23.84 1 1.46 1.92 1.46h13c.92 0 1.69-.62 1.93-1.46l2.54-9.27.03-.27c0-.55-.45-1-1-1zm-10-4.2l2.8 4.2h-5.6l2.8-4.2zm6.5 14.2l-12.99.01-2.2-8.01H25.7l-2.2 8zm-6.5-6c-1.1 0-2 .9-2 2s.9 2 2 2 2-.9 2-2-.9-2-2-2z" fill="#ECE03D"/></g><defs><clipPath id="clip0_401_2749"><path fill="#fff" transform="translate(0 .5)" d="M0 0h34v34H0z"/></clipPath></defs></svg>

<svg width="34" height="35" viewBox="0 0 34 35" fill="none" xmlns="http://www.w3.org/2000/svg">
<g clip-path="url(#clip0_401_2749)">
<path d="M27 14.5H22.21L17.83 7.94002C17.64 7.66002 17.32 7.52002 17 7.52002C16.68 7.52002 16.36 7.66002 16.17 7.95002L11.79 14.5H7C6.45 14.5 6 14.95 6 15.5C6 15.59 6.01 15.68 6.04 15.77L8.58 25.04C8.81 25.88 9.58 26.5 10.5 26.5H23.5C24.42 26.5 25.19 25.88 25.43 25.04L27.97 15.77L28 15.5C28 14.95 27.55 14.5 27 14.5ZM17 10.3L19.8 14.5H14.2L17 10.3ZM23.5 24.5L10.51 24.51L8.31 16.5H25.7L23.5 24.5ZM17 18.5C15.9 18.5 15 19.4 15 20.5C15 21.6 15.9 22.5 17 22.5C18.1 22.5 19 21.6 19 20.5C19 19.4 18.1 18.5 17 18.5Z" fill="#ECE03D"/>
</g>
<defs>
<clipPath id="clip0_401_2749">
<rect width="34" height="34" fill="white" transform="translate(0 0.5)"/>
</clipPath>
</defs>
</svg>
